static/img/in-field/btn-ancillary-icon-only.svg

<svg width="56" height="56" viewBox="0 0 56 56" fill="none" xmlns="http://www.w3.org/2000/svg">
<path d="M20.0003 15.6667C19.4109 15.6667 18.8514 15.7839 18.3418 15.9952C17.8317 16.2067 17.2466 15.9647 17.0351 15.4545C16.8235 14.9443 17.0656 14.3593 17.5757 14.1477C18.3239 13.8375 19.1434 13.6667 20.0003 13.6667H22.0003C22.5526 13.6667 23.0003 14.1145 23.0003 14.6667C23.0003 15.219 22.5526 15.6667 22.0003 15.6667H20.0003Z" fill="#363545"/>
<path d="M25.0003 14.6667C25.0003 14.1145 25.448 13.6667 26.0003 13.6667H30.0003C30.5526 13.6667 31.0003 14.1145 31.0003 14.6667C31.0003 15.219 30.5526 15.6667 30.0003 15.6667H26.0003C25.448 15.6667 25.0003 15.219 25.0003 14.6667Z" fill="#363545"/>
<path d="M33.0003 14.6667C33.0003 14.1145 33.448 13.6667 34.0003 13.6667H36.0003C36.8572 13.6667 37.6768 13.8375 38.4249 14.1477C38.9351 14.3593 39.1771 14.9443 38.9656 15.4545C38.754 15.9647 38.169 16.2067 37.6588 15.9952C37.1493 15.7839 36.5897 15.6667 36.0003 15.6667H34.0003C33.448 15.6667 33.0003 15.219 33.0003 14.6667Z" fill="#363545"/>
<path d="M15.4547 17.0348C15.9649 17.2464 16.207 17.8314 15.9954 18.3416C15.7841 18.8511 15.667 19.4107 15.667 20.0001V22.0001C15.667 22.5524 15.2193 23.0001 14.667 23.0001C14.1147 23.0001 13.667 22.5524 13.667 22.0001V20.0001C13.667 19.1432 13.8377 18.3236 14.148 17.5755C14.3595 17.0653 14.9446 16.8233 15.4547 17.0348Z" fill="#363545"/>
<path d="M40.5459 17.0348C41.0561 16.8233 41.6411 17.0653 41.8527 17.5755C42.1629 18.3236 42.3337 19.1432 42.3337 20.0001V22.0001C42.3337 22.5524 41.8859 23.0001 41.3337 23.0001C40.7814 23.0001 40.3337 22.5524 40.3337 22.0001V20.0001C40.3337 19.4107 40.2165 18.8511 40.0052 18.3416C39.7937 17.8314 40.0357 17.2464 40.5459 17.0348Z" fill="#363545"/>
<path d="M14.667 25.0001C15.2193 25.0001 15.667 25.4478 15.667 26.0001V30.0001C15.667 30.5524 15.2193 31.0001 14.667 31.0001C14.1147 31.0001 13.667 30.5524 13.667 30.0001V26.0001C13.667 25.4478 14.1147 25.0001 14.667 25.0001Z" fill="#363545"/>
<path d="M41.3337 25.0001C41.8859 25.0001 42.3337 25.4478 42.3337 26.0001V30.0001C42.3337 30.5524 41.8859 31.0001 41.3337 31.0001C40.7814 31.0001 40.3337 30.5524 40.3337 30.0001V26.0001C40.3337 25.4478 40.7814 25.0001 41.3337 25.0001Z" fill="#363545"/>
<path d="M14.667 33.0001C15.2193 33.0001 15.667 33.4478 15.667 34.0001V36.0001C15.667 36.5895 15.7841 37.149 15.9954 37.6586C16.207 38.1687 15.9649 38.7538 15.4547 38.9653C14.9446 39.1769 14.3595 38.9348 14.148 38.4247C13.8377 37.6765 13.667 36.857 13.667 36.0001V34.0001C13.667 33.4478 14.1147 33.0001 14.667 33.0001Z" fill="#363545"/>
<path d="M41.3337 33.0001C41.8859 33.0001 42.3337 33.4478 42.3337 34.0001V36.0001C42.3337 36.857 42.1629 37.6765 41.8527 38.4247C41.6411 38.9348 41.0561 39.1769 40.5459 38.9653C40.0357 38.7538 39.7937 38.1687 40.0052 37.6586C40.2165 37.149 40.3337 36.5895 40.3337 36.0001V34.0001C40.3337 33.4478 40.7814 33.0001 41.3337 33.0001Z" fill="#363545"/>
<path d="M17.0351 40.5457C17.2466 40.0355 17.8317 39.7934 18.3418 40.005C18.8514 40.2163 19.4109 40.3334 20.0003 40.3334H22.0003C22.5526 40.3334 23.0003 40.7811 23.0003 41.3334C23.0003 41.8857 22.5526 42.3334 22.0003 42.3334H20.0003C19.1434 42.3334 18.3239 42.1627 17.5757 41.8524C17.0656 41.6409 16.8235 41.0558 17.0351 40.5457Z" fill="#363545"/>
<path d="M38.9656 40.5457C39.1771 41.0558 38.9351 41.6409 38.4249 41.8524C37.6768 42.1627 36.8572 42.3334 36.0003 42.3334H34.0003C33.448 42.3334 33.0003 41.8857 33.0003 41.3334C33.0003 40.7811 33.448 40.3334 34.0003 40.3334H36.0003C36.5897 40.3334 37.1493 40.2163 37.6588 40.005C38.169 39.7934 38.754 40.0355 38.9656 40.5457Z" fill="#363545"/>
<path d="M25.0003 41.3334C25.0003 40.7811 25.448 40.3334 26.0003 40.3334H30.0003C30.5526 40.3334 31.0003 40.7811 31.0003 41.3334C31.0003 41.8857 30.5526 42.3334 30.0003 42.3334H26.0003C25.448 42.3334 25.0003 41.8857 25.0003 41.3334Z" fill="#363545"/>
<path d="M39.3741 18.1214C39.7646 17.7309 39.7646 17.0977 39.3741 16.7072C38.9836 16.3167 38.3504 16.3167 37.9599 16.7072L36.6316 18.0355C36.2411 18.426 36.2411 19.0592 36.6316 19.4497C37.0221 19.8402 37.6553 19.8402 38.0458 19.4497L39.3741 18.1214Z" fill="#363545"/>
<path d="M35.3893 22.1062C35.7798 21.7157 35.7798 21.0825 35.3893 20.692C34.9987 20.3015 34.3656 20.3015 33.9751 20.692L31.3185 23.3486C30.928 23.7391 30.928 24.3723 31.3185 24.7628C31.709 25.1533 32.3422 25.1533 32.7327 24.7628L35.3893 22.1062Z" fill="#363545"/>
<path d="M30.0762 27.4194C30.4667 27.0288 30.4667 26.3957 30.0762 26.0051C29.6856 25.6146 29.0525 25.6146 28.6619 26.0051L28.0003 26.6667L27.3387 26.0051C26.9482 25.6146 26.315 25.6146 25.9245 26.0051C25.534 26.3957 25.534 27.0288 25.9245 27.4194L26.5861 28.081L26.0054 28.6617C25.6149 29.0522 25.6149 29.6854 26.0054 30.0759C26.3959 30.4664 27.0291 30.4664 27.4196 30.0759L28.0003 29.4952L28.5811 30.0759C28.9716 30.4664 29.6047 30.4664 29.9953 30.0759C30.3858 29.6854 30.3858 29.0522 29.9953 28.6617L29.4145 28.081L30.0762 27.4194Z" fill="#363545"/>
<path d="M24.763 32.7325C25.1536 32.3419 25.1536 31.7088 24.763 31.3183C24.3725 30.9277 23.7393 30.9277 23.3488 31.3183L20.6923 33.9748C20.3017 34.3653 20.3017 34.9985 20.6923 35.389C21.0828 35.7795 21.716 35.7795 22.1065 35.389L24.763 32.7325Z" fill="#363545"/>
<path d="M19.4499 38.0456C19.8404 37.6551 19.8404 37.0219 19.4499 36.6314C19.0594 36.2408 18.4262 36.2408 18.0357 36.6314L16.7074 37.9596C16.3169 38.3502 16.3169 38.9833 16.7074 39.3739C17.098 39.7644 17.7311 39.7644 18.1216 39.3739L19.4499 38.0456Z" fill="#363545"/>
<path d="M37.879 39.3739C38.2695 39.7644 38.9027 39.7644 39.2932 39.3739C39.6837 38.9833 39.6837 38.3502 39.2932 37.9596L37.9649 36.6314C37.5744 36.2408 36.9413 36.2408 36.5507 36.6314C36.1602 37.0219 36.1602 37.6551 36.5507 38.0456L37.879 39.3739Z" fill="#363545"/>
<path d="M33.8942 35.389C34.2847 35.7795 34.9179 35.7795 35.3084 35.389C35.6989 34.9985 35.6989 34.3653 35.3084 33.9748L32.6518 31.3183C32.2613 30.9277 31.6281 30.9277 31.2376 31.3183C30.8471 31.7088 30.8471 32.3419 31.2376 32.7325L33.8942 35.389Z" fill="#363545"/>
<path d="M23.2679 24.7628C23.6585 25.1533 24.2916 25.1533 24.6822 24.7628C25.0727 24.3723 25.0727 23.7391 24.6822 23.3486L22.0256 20.692C21.6351 20.3015 21.0019 20.3015 20.6114 20.692C20.2209 21.0825 20.2209 21.7157 20.6114 22.1062L23.2679 24.7628Z" fill="#363545"/>
<path d="M17.9548 19.4497C18.3454 19.8402 18.9785 19.8402 19.369 19.4497C19.7596 19.0592 19.7596 18.426 19.369 18.0355L18.0408 16.7072C17.6502 16.3167 17.0171 16.3167 16.6265 16.7072C16.236 17.0977 16.236 17.7309 16.6265 18.1214L17.9548 19.4497Z" fill="#363545"/>
<path d="M24.0749 21.1855C24.472 21.0651 24.8944 21.0001 25.3337 21.0001H26.3337C26.8859 21.0001 27.3337 20.5524 27.3337 20.0001C27.3337 19.4478 26.8859 19.0001 26.3337 19.0001H25.3337C24.6957 19.0001 24.0781 19.0947 23.495 19.2714C22.9664 19.4315 22.6678 19.9898 22.8279 20.5184C22.988 21.0469 23.5463 21.3456 24.0749 21.1855Z" fill="#363545"/>
<path d="M29.667 19.0001C29.1147 19.0001 28.667 19.4478 28.667 20.0001C28.667 20.5524 29.1147 21.0001 29.667 21.0001H30.667C31.1063 21.0001 31.5286 21.0651 31.9257 21.1855C32.4543 21.3456 33.0126 21.0469 33.1727 20.5184C33.3329 19.9898 33.0342 19.4315 32.5057 19.2714C31.9225 19.0947 31.3049 19.0001 30.667 19.0001H29.667Z" fill="#363545"/>
<path d="M21.1857 24.0747C21.3458 23.5461 21.0472 22.9878 20.5186 22.8277C19.9901 22.6675 19.4318 22.9662 19.2716 23.4947C19.095 24.0779 19.0003 24.6955 19.0003 25.3334V26.3334C19.0003 26.8857 19.448 27.3334 20.0003 27.3334C20.5526 27.3334 21.0003 26.8857 21.0003 26.3334V25.3334C21.0003 24.8941 21.0654 24.4718 21.1857 24.0747Z" fill="#363545"/>
<path d="M36.729 23.4947C36.5689 22.9662 36.0106 22.6675 35.482 22.8277C34.9535 22.9878 34.6548 23.5461 34.8149 24.0747C34.9353 24.4718 35.0003 24.8941 35.0003 25.3334V26.3334C35.0003 26.8857 35.448 27.3334 36.0003 27.3334C36.5526 27.3334 37.0003 26.8857 37.0003 26.3334V25.3334C37.0003 24.6955 36.9057 24.0779 36.729 23.4947Z" fill="#363545"/>
<path d="M21.0003 29.6667C21.0003 29.1145 20.5526 28.6667 20.0003 28.6667C19.448 28.6667 19.0003 29.1145 19.0003 29.6667V30.6667C19.0003 31.3047 19.095 31.9223 19.2716 32.5054C19.4318 33.034 19.9901 33.3326 20.5186 33.1725C21.0472 33.0124 21.3458 32.4541 21.1857 31.9255C21.0654 31.5284 21.0003 31.1061 21.0003 30.6667V29.6667Z" fill="#363545"/>
<path d="M37.0003 29.6667C37.0003 29.1145 36.5526 28.6667 36.0003 28.6667C35.448 28.6667 35.0003 29.1145 35.0003 29.6667V30.6667C35.0003 31.1061 34.9353 31.5284 34.8149 31.9255C34.6548 32.4541 34.9535 33.0124 35.482 33.1725C36.0106 33.3326 36.5689 33.034 36.729 32.5054C36.9057 31.9223 37.0003 31.3047 37.0003 30.6667V29.6667Z" fill="#363545"/>
<path d="M24.0749 34.8147C23.5463 34.6546 22.988 34.9532 22.8279 35.4818C22.6678 36.0103 22.9664 36.5686 23.495 36.7288C24.0781 36.9055 24.6957 37.0001 25.3337 37.0001H26.3337C26.8859 37.0001 27.3337 36.5524 27.3337 36.0001C27.3337 35.4478 26.8859 35.0001 26.3337 35.0001H25.3337C24.8944 35.0001 24.472 34.935 24.0749 34.8147Z" fill="#363545"/>
<path d="M32.5057 36.7288C33.0342 36.5686 33.3329 36.0103 33.1727 35.4818C33.0126 34.9532 32.4543 34.6546 31.9257 34.8147C31.5286 34.935 31.1063 35.0001 30.667 35.0001H29.667C29.1147 35.0001 28.667 35.4478 28.667 36.0001C28.667 36.5524 29.1147 37.0001 29.667 37.0001H30.667C31.3049 37.0001 31.9225 36.9055 32.5057 36.7288Z" fill="#363545"/>
</svg>

<svg width="56" height="56" fill="none" xmlns="http://www.w3.org/2000/svg"><path d="M20 15.667c-.59 0-1.149.117-1.658.328a1 1 0 01-.766-1.847A6.318 6.318 0 0120 13.667h2a1 1 0 010 2h-2zM25 14.667a1 1 0 011-1h4a1 1 0 010 2h-4a1 1 0 01-1-1zM33 14.667a1 1 0 011-1h2c.857 0 1.677.17 2.425.48a1 1 0 01-.766 1.848A4.317 4.317 0 0036 15.667h-2a1 1 0 01-1-1zM15.455 17.035a1 1 0 01.54 1.307A4.317 4.317 0 0015.667 20v2a1 1 0 11-2 0v-2c0-.857.17-1.676.481-2.424a1 1 0 011.307-.541zM40.546 17.035a1 1 0 011.307.54c.31.749.48 1.568.48 2.425v2a1 1 0 01-2 0v-2c0-.59-.116-1.149-.328-1.658a1 1 0 01.54-1.307zM14.667 25a1 1 0 011 1v4a1 1 0 11-2 0v-4a1 1 0 011-1zM41.334 25a1 1 0 011 1v4a1 1 0 01-2 0v-4a1 1 0 011-1zM14.667 33a1 1 0 011 1v2c0 .59.117 1.149.328 1.659a1 1 0 11-1.847.766A6.317 6.317 0 0113.667 36v-2a1 1 0 011-1zM41.334 33a1 1 0 011 1v2c0 .857-.171 1.676-.481 2.425a1 1 0 01-1.848-.766c.212-.51.329-1.07.329-1.659v-2a1 1 0 011-1zM17.035 40.546a1 1 0 011.307-.541c.51.211 1.069.328 1.658.328h2a1 1 0 110 2h-2c-.857 0-1.676-.17-2.424-.48a1 1 0 01-.54-1.307zM38.966 40.546a1 1 0 01-.541 1.306 6.316 6.316 0 01-2.425.481h-2a1 1 0 110-2h2c.59 0 1.15-.117 1.659-.328a1 1 0 011.307.54zM25 41.333a1 1 0 011-1h4a1 1 0 110 2h-4a1 1 0 01-1-1zM39.374 18.121a1 1 0 00-1.414-1.414l-1.328 1.328a1 1 0 001.414 1.415l1.328-1.329zM35.39 22.106a1 1 0 00-1.415-1.414l-2.657 2.657a1 1 0 001.415 1.414l2.656-2.657zM30.076 27.42a1 1 0 00-1.414-1.415l-.662.662-.661-.662a1 1 0 00-1.415 1.414l.662.662-.58.58a1 1 0 001.414 1.415l.58-.58.581.58a1 1 0 001.414-1.414l-.58-.581.661-.662zM24.763 32.733a1 1 0 10-1.414-1.415l-2.657 2.657a1 1 0 101.415 1.414l2.656-2.657zM19.45 38.046a1 1 0 00-1.414-1.415l-1.329 1.329a1 1 0 001.415 1.414l1.328-1.328zM37.879 39.374a1 1 0 001.414-1.414l-1.328-1.329a1 1 0 10-1.414 1.415l1.328 1.328zM33.894 35.389a1 1 0 001.414-1.414l-2.656-2.657a1 1 0 10-1.414 1.415l2.656 2.656zM23.268 24.763a1 1 0 001.414-1.414l-2.656-2.657a1 1 0 00-1.415 1.414l2.657 2.657zM17.955 19.45a1 1 0 001.414-1.415l-1.328-1.328a1 1 0 00-1.415 1.414l1.329 1.329zM24.075 21.186A4.33 4.33 0 0125.334 21h1a1 1 0 000-2h-1c-.638 0-1.256.095-1.839.271a1 1 0 10.58 1.915zM29.667 19a1 1 0 100 2h1c.44 0 .862.065 1.259.186a1 1 0 00.58-1.915 6.333 6.333 0 00-1.839-.27h-1zM21.186 24.075a1 1 0 00-1.914-.58A6.336 6.336 0 0019 25.333v1a1 1 0 102 0v-1c0-.439.065-.861.186-1.258zM36.729 23.495a1 1 0 10-1.914.58c.12.397.185.82.185 1.258v1a1 1 0 102 0v-1c0-.637-.094-1.255-.271-1.838zM21 29.667a1 1 0 00-2 0v1c0 .638.095 1.255.272 1.838a1 1 0 001.914-.58A4.334 4.334 0 0121 30.668v-1zM37 29.667a1 1 0 00-2 0v1c0 .44-.065.861-.185 1.258a1 1 0 001.914.58c.177-.583.271-1.2.271-1.838v-1zM24.075 34.815a1 1 0 10-.58 1.914c.583.177 1.2.271 1.839.271h1a1 1 0 000-2h-1c-.44 0-.862-.065-1.26-.185zM32.506 36.729a1 1 0 00-.58-1.914c-.397.12-.82.185-1.259.185h-1a1 1 0 100 2h1c.638 0 1.255-.094 1.839-.271z" fill="#363545"/></svg>
